assets/images/payment-method-icons/amex.svg

<svg fill="none" height="25" viewBox="0 0 39 25" width="39" xmlns="http://www.w3.org/2000/svg"><path d="m34.6947 5.90398.768-2.08798 3.3373-.01603v-3.79997l-38.024976.0160244v23.9997756l38.024976-.016v-3.792l-3.1373.016-1.224-1.4319-1.272 1.4319h-9.4079v-7.6239h-3.104l3.88-8.7839h3.7759l.912 1.99198v-1.99198h4.688zm-2.648 1.38399-.008-.84001.32.84001 1.56 4.16793h1.552l1.568-4.16793.304-.832v4.99993l1.4573-.016v-6.39995l-2.5373.01603-1.232 3.24799-.328.87997-.336-.87997-1.24-3.24799h-2.712v6.39992h1.632zm-3.5119 4.16793h1.8799l-2.8159-6.39992h-2.184l-2.832 6.39992h1.856l.496-1.232h3.104zm-2.368-4.23192.32-.80002.32.80002.664 1.61594h-1.968zm-1.096 5.38392v6.376h5.3439v-1.3841h-3.7119v-1.1119h3.64v-1.376h-3.64v-1.12h3.7119v-1.384zm11.2879 6.376h2.12l-2.992-3.2 2.992-3.176h-2.088l-1.928 2.072-1.92-2.072h-2.128l2.984 3.2-2.984 3.176h2.064l1.944-2.08zm.808-3.208 1.6333 1.8239v-3.6559z" fill="#006fcf"/></svg>

<svg
        width="39"
        height="25"
        viewBox="0 0 39 25"
        fill="none"
        xmlns="http://www.w3.org/2000/svg"
>
    <path
            d="M34.6947 5.90398L35.4627 3.816L38.8 3.79997V0L0.775024 0.0160244V24.0158L38.8 23.9998V20.2078L35.6627 20.2238L34.4387 18.7919L33.1667 20.2238H23.7588V12.5999H20.6548L24.5348 3.816H28.3107L29.2227 5.80798V3.816H33.9107L34.6947 5.90398ZM32.0467 7.28797L32.0387 6.44796L32.3587 7.28797L33.9187 11.4559H35.4707L37.0387 7.28797L37.3427 6.45597V11.4559L38.8 11.4399V5.03995L36.2627 5.05598L35.0307 8.30397L34.7027 9.18394L34.3667 8.30397L33.1267 5.05598H30.4147V11.4559H32.0467V7.28797ZM28.5348 11.4559H30.4147L27.5988 5.05598H25.4148L22.5828 11.4559H24.4388L24.9348 10.2239H28.0388L28.5348 11.4559ZM26.1668 7.22398L26.4868 6.42396L26.8068 7.22398L27.4708 8.83992H25.5028L26.1668 7.22398ZM25.0708 12.6079V18.9839H30.4147V17.5998H26.7028V16.4879H30.3428V15.1119H26.7028V13.9919H30.4147V12.6079H25.0708ZM36.3587 18.9839H38.4787L35.4867 15.7839L38.4787 12.6079H36.3907L34.4627 14.6799L32.5427 12.6079H30.4147L33.3987 15.8079L30.4147 18.9839H32.4787L34.4227 16.9039L36.3587 18.9839ZM37.1667 15.7759L38.8 17.5998V13.9439L37.1667 15.7759Z"
            fill="#006FCF"
    />
</svg>
